Sources/FrostedUI/Resources/Icons.xcassets/upinTilted16.imageset/upin-tilted-16.svg

<svg width="16" height="16" viewBox="0 0 16 16" fill="none" xmlns="http://www.w3.org/2000/svg" data-fui-icon="true">
  <path
    d="M1.21973 1.21973C1.51262 0.926833 1.98738 0.926833 2.28027 1.21973L14.7803 13.7197C15.0731 14.0126 15.0731 14.4874 14.7803 14.7803C14.4874 15.0731 14.0126 15.0731 13.7197 14.7803L11.5425 12.603C11.4049 12.4654 11.17 12.5287 11.1201 12.7168C10.7132 14.2426 8.80608 14.7543 7.68945 13.6377L5.78342 11.7325C5.66626 11.6154 5.47634 11.6155 5.35921 11.7326L3.27344 13.8184C2.98063 14.1112 2.5058 14.111 2.21289 13.8184C1.92012 13.5255 1.92004 13.0507 2.21289 12.7578L4.29861 10.6721C4.41577 10.5549 4.41577 10.365 4.29861 10.2478L2.39258 8.3418C1.27621 7.22522 1.788 5.31824 3.31348 4.91113C3.50178 4.8608 3.56491 4.62546 3.42709 4.48764L1.21973 2.28027C0.926833 1.98738 0.926834 1.51262 1.21973 1.21973ZM3.7002 6.36035C3.2913 6.46981 3.15385 6.98178 3.45312 7.28125L8.75 12.5771C9.04942 12.8766 9.56035 12.7399 9.66992 12.3311L9.96228 11.2345C9.98986 11.1311 9.96023 11.0208 9.88454 10.9451L5.08522 6.14576C5.00951 6.07006 4.89919 6.04043 4.79574 6.06804L3.7002 6.36035ZM8.54102 1.83301C9.34154 1.03296 10.64 1.03285 11.4404 1.83301L14.1982 4.59082C14.9983 5.39118 14.998 6.68872 14.1982 7.48926L12.636 9.05068C12.5188 9.16778 12.3289 9.16776 12.2118 9.05062L11.5755 8.41434C11.4583 8.29716 11.4583 8.10716 11.5755 7.99002L13.1377 6.42871C13.3517 6.21396 13.352 5.86594 13.1377 5.65137L10.3789 2.89355C10.1642 2.67935 9.81624 2.67936 9.60156 2.89355L8.04026 4.45486C7.9231 4.57202 7.73315 4.57202 7.61599 4.45486L6.97971 3.81858C6.86255 3.70142 6.86255 3.51147 6.97971 3.39431L8.54102 1.83301Z"
    fill="currentColor"
  />
</svg>

<svg xmlns="http://www.w3.org/2000/svg" width="16" height="16" fill="none" data-fui-icon="true" viewBox="0 0 16 16"><path fill="currentColor" d="M1.22 1.22a.75.75 0 0 1 1.06 0l12.5 12.5a.75.75 0 0 1-1.06 1.06l-2.177-2.177a.252.252 0 0 0-.423.114c-.407 1.526-2.314 2.037-3.43.92l-1.907-1.905a.3.3 0 0 0-.424 0l-2.086 2.086a.75.75 0 0 1-1.06-1.06l2.086-2.086a.3.3 0 0 0 0-.424L2.393 8.342c-1.117-1.117-.605-3.024.92-3.43a.253.253 0 0 0 .114-.424L1.22 2.28a.75.75 0 0 1 0-1.06M3.7 6.36a.55.55 0 0 0-.247.921l5.297 5.296c.3.3.81.163.92-.246l.292-1.096a.3.3 0 0 0-.077-.29l-4.8-4.8a.3.3 0 0 0-.29-.077zm4.841-4.527c.8-.8 2.099-.8 2.9 0l2.757 2.758c.8.8.8 2.098 0 2.898l-1.562 1.562a.3.3 0 0 1-.424 0l-.636-.637a.3.3 0 0 1 0-.424l1.562-1.561a.55.55 0 0 0 0-.778l-2.76-2.757a.55.55 0 0 0-.776 0L8.04 4.454a.3.3 0 0 1-.424 0L6.98 3.82a.3.3 0 0 1 0-.425z"/></svg>
